assets/images/brand5.svg

<svg width="92" height="38" viewBox="0 0 92 38" fill="none" xmlns="http://www.w3.org/2000/svg">
<path d="M0.143066 23.2201V0.476562H13.6733V23.209H0.143066V23.2201ZM12.0339 17.9288L12.382 15.4166L11.1244 15.2943L10.7427 17.2285C9.95667 17.6176 8.99103 17.8065 7.83451 17.8065C6.26254 17.8065 5.01618 17.3174 4.10668 16.3281C3.18595 15.3388 2.73682 14.0382 2.73682 12.4152C2.73682 10.8368 3.18596 9.53618 4.073 8.5135C4.96004 7.49082 6.12782 6.97948 7.57628 6.97948C8.31735 6.97948 8.94612 7.0684 9.4514 7.23515C9.95668 7.40189 10.417 7.62421 10.8549 7.91323L11.2255 9.82519L12.5055 9.70292L12.135 7.19068C11.596 6.73492 10.956 6.36809 10.2149 6.07907C9.47385 5.80117 8.55314 5.65666 7.46399 5.65666C6.17273 5.65666 5.06111 5.96791 4.12916 6.60153C3.1972 7.23515 2.46736 8.06885 1.95085 9.10265C1.43435 10.1476 1.17609 11.2703 1.17609 12.4708C1.17609 14.3717 1.77119 15.9613 2.9614 17.2285C4.15161 18.4957 5.70112 19.1294 7.62117 19.1294C9.50753 19.1294 10.9785 18.7292 12.0339 17.9288Z" fill="#3C2B4A"/>
<path d="M18.2661 23.2201V0.476562H24.0824V23.209H18.2661V23.2201ZM18.8837 18.9293H23.4761V17.7843H21.8929V5.08974H18.8612V6.2347H20.4669V17.7843H18.8837V18.9293Z" fill="#3C2B4A"/>
<path d="M28.6748 23.2201V0.476562H38.8926V23.209H28.6748V23.2201ZM30.5275 10.6589L30.2019 12.7265L31.3808 12.871L31.7289 11.3259C32.2342 11.0813 32.8068 10.959 33.4805 10.959C34.289 10.959 34.8392 11.1591 35.1199 11.5593C35.4006 11.9595 35.5354 12.4819 35.5354 13.1267V13.927C35.2883 13.9048 35.0301 13.8826 34.7494 13.8715C34.4686 13.8603 34.1992 13.8492 33.9297 13.8492C32.9192 13.8492 31.9535 14.0271 31.0552 14.3828C30.1569 14.7385 29.7078 15.4833 29.7078 16.606C29.7078 17.562 30.011 18.2178 30.6286 18.5736C31.2461 18.9404 31.8525 19.1182 32.4476 19.1182C33.1774 19.1182 33.8062 18.9293 34.3227 18.5513C34.8392 18.1734 35.2434 17.751 35.5354 17.2619V17.3063C35.5578 18.518 36.108 19.1182 37.1859 19.1182C37.6014 19.1182 37.9944 19.0182 38.3649 18.8181L38.3425 17.8955C38.1628 17.9733 37.9607 18.0178 37.7361 18.0178C37.2196 18.0178 36.9613 17.6954 36.9613 17.0507V12.7932C36.9613 10.7923 35.8834 9.79185 33.7276 9.79185C33.1325 9.79185 32.5711 9.85854 32.0433 9.99194C31.5044 10.1364 30.9991 10.3588 30.5275 10.6589ZM35.5241 15.5722C35.468 16.3059 35.1648 16.895 34.6146 17.3174C34.0644 17.751 33.4805 17.9622 32.8518 17.9622C32.4588 17.9622 32.077 17.851 31.7177 17.6398C31.3472 17.4286 31.1675 17.0284 31.1675 16.4504C31.1675 15.7501 31.4482 15.3054 31.9872 15.0942C32.5374 14.883 33.1437 14.783 33.8286 14.783C34.1318 14.783 34.4237 14.7941 34.7044 14.8274C34.9851 14.8497 35.2659 14.8719 35.5129 14.883V15.5722H35.5241Z" fill="#3C2B4A"/>
<path d="M43.4961 23.2201V0.476562H52.7819V23.209H43.4961V23.2201ZM51.8051 16.3392C51.8051 15.6278 51.6142 15.1053 51.2324 14.7607C50.8507 14.4161 50.3903 14.1827 49.8289 14.0493C49.2675 13.9159 48.7173 13.8048 48.1671 13.7158C47.6169 13.6269 47.1453 13.4824 46.7636 13.2934C46.3818 13.1044 46.1909 12.771 46.1909 12.293C46.1909 11.8372 46.3705 11.5037 46.7411 11.2814C47.1116 11.0591 47.572 10.959 48.1446 10.959C48.8071 10.959 49.4247 11.1035 49.9973 11.4037L50.2219 12.8488L51.4009 12.7043L51.1763 10.6144C50.7945 10.381 50.3342 10.192 49.784 10.0364C49.2338 9.88077 48.6499 9.79185 48.0211 9.79185C47.1902 9.79185 46.4267 9.99193 45.7193 10.381C45.0119 10.7701 44.6639 11.437 44.6639 12.393C44.6639 13.0933 44.8547 13.6047 45.2365 13.927C45.6182 14.2605 46.0899 14.4828 46.6625 14.6162C47.2352 14.7496 47.7965 14.8608 48.358 14.9608C48.9194 15.0498 49.391 15.2054 49.7728 15.4055C50.1545 15.6056 50.3454 15.9502 50.3454 16.4504C50.3454 16.9617 50.0983 17.3397 49.6043 17.5842C49.1102 17.8288 48.5489 17.9511 47.9088 17.9511C47.1902 17.9511 46.5165 17.8065 45.8989 17.5064L45.9551 16.317L44.821 16.1947L44.5403 18.229C44.9333 18.4846 45.4498 18.6958 46.0786 18.8626C46.7074 19.0293 47.3362 19.1182 47.9762 19.1182C49.0654 19.1182 49.9749 18.8737 50.7047 18.3735C51.4346 17.8955 51.8051 17.2063 51.8051 16.3392Z" fill="#3C2B4A"/>
<path d="M57.3745 23.2201V0.476562H66.6603V23.209H57.3745V23.2201ZM65.6835 16.3392C65.6835 15.6278 65.4926 15.1053 65.1108 14.7607C64.729 14.4161 64.2687 14.1827 63.7073 14.0493C63.1458 13.9159 62.5957 13.8048 62.0455 13.7158C61.4953 13.6269 61.0237 13.4824 60.6419 13.2934C60.2602 13.1044 60.0693 12.771 60.0693 12.293C60.0693 11.8372 60.2489 11.5037 60.6195 11.2814C60.99 11.0591 61.4504 10.959 62.023 10.959C62.6855 10.959 63.3031 11.1035 63.8757 11.4037L64.1003 12.8488L65.2793 12.7043L65.0547 10.6144C64.6729 10.381 64.2126 10.192 63.6624 10.0364C63.1122 9.88077 62.5283 9.79185 61.8995 9.79185C61.0686 9.79185 60.3051 9.99193 59.5977 10.381C58.8903 10.7701 58.5422 11.437 58.5422 12.393C58.5422 13.0933 58.7331 13.6047 59.1149 13.927C59.4967 14.2605 59.9683 14.4828 60.5409 14.6162C61.1136 14.7496 61.6749 14.8608 62.2363 14.9608C62.7978 15.0498 63.2694 15.2054 63.6511 15.4055C64.0329 15.6056 64.2238 15.9502 64.2238 16.4504C64.2238 16.9617 63.9768 17.3397 63.4827 17.5842C62.9887 17.8288 62.4273 17.9511 61.7873 17.9511C61.0686 17.9511 60.3949 17.8065 59.7773 17.5064L59.8335 16.317L58.6995 16.1947L58.4187 18.229C58.8117 18.4846 59.3282 18.6958 59.957 18.8626C60.5858 19.0293 61.2146 19.1182 61.8546 19.1182C62.9438 19.1182 63.8533 18.8737 64.5831 18.3735C65.313 17.8955 65.6835 17.2063 65.6835 16.3392Z" fill="#3C2B4A"/>
<path d="M71.2524 23.2201V0.476562H77.3719V23.209H71.2524V23.2201ZM72.1507 18.9293H76.7431V17.7843H75.1599V9.98082H72.117V11.1258H73.7451V17.7843H72.1619V18.9293H72.1507ZM73.588 5.83452V7.66867H75.1375V5.83452H73.588Z" fill="#3C2B4A"/>
<path d="M81.9644 23.2201V0.476562H91.7443V23.209H81.9644V23.2201ZM90.8684 15.9168L89.6446 15.65C89.3751 17.1618 88.5555 17.9177 87.2081 17.9177C86.3098 17.9177 85.6248 17.6176 85.1532 17.0173C84.6817 16.417 84.4459 15.5722 84.4459 14.5051C84.4459 13.538 84.6592 12.7154 85.0746 12.0262C85.4901 11.337 86.1862 11.0035 87.1519 11.0035C87.8929 11.0035 88.5442 11.1702 89.0832 11.5037L89.4313 13.0155L90.6102 12.871L90.2621 10.7145C89.8018 10.3699 89.319 10.1253 88.8137 9.99194C88.3084 9.85854 87.7582 9.79185 87.1631 9.79185C85.7596 9.79185 84.6928 10.281 83.9967 11.2592C83.2893 12.2374 82.9412 13.349 82.9412 14.5829C82.9412 16.0169 83.3118 17.1396 84.0641 17.9288C84.8051 18.7292 85.8045 19.1294 87.0508 19.1294C88.2972 19.1294 89.2179 18.7848 89.8018 18.1067C90.3857 17.4175 90.7449 16.6949 90.8684 15.9168Z" fill="#3C2B4A"/>
<path d="M5.99325 35.6367C5.73499 36.1036 5.35322 36.4704 4.85917 36.7261C4.35389 36.9818 3.75878 37.1152 3.06262 37.1152H1.05273V30.8457H3.06262C3.75878 30.8457 4.36512 30.968 4.85917 31.2237C5.35322 31.4793 5.73499 31.835 5.99325 32.313C6.2515 32.791 6.37501 33.3357 6.37501 33.9804C6.37501 34.6141 6.2515 35.1699 5.99325 35.6367ZM4.88161 35.759C5.31952 35.3366 5.53288 34.7475 5.53288 33.9804C5.53288 33.2134 5.31952 32.6243 4.88161 32.2019C4.44371 31.7795 3.81492 31.5682 2.98402 31.5682H1.84997V36.3926H2.98402C3.81492 36.3926 4.44371 36.1814 4.88161 35.759Z" fill="#3C2B4A"/>
<path d="M10.5409 31.5016V33.647H12.9438V34.2695H10.5409V36.4593H13.2132V37.1152H9.72119V30.8457H13.2132V31.5016H10.5409Z" fill="#3C2B4A"/>
<path d="M20.3098 36.3151C20.1638 36.5708 19.9505 36.782 19.6585 36.9376C19.3666 37.0932 19.0073 37.1822 18.5694 37.1822C18.1539 37.1822 17.7722 37.1044 17.4465 36.9598C17.1209 36.8042 16.8627 36.6041 16.6606 36.3373C16.4697 36.0706 16.3574 35.7704 16.3237 35.4369H17.1995C17.222 35.6148 17.2781 35.7927 17.3792 35.9594C17.4802 36.1261 17.6374 36.2706 17.8283 36.3818C18.0192 36.493 18.255 36.5485 18.5357 36.5485C18.895 36.5485 19.1757 36.4596 19.3666 36.2595C19.5575 36.0594 19.6585 35.826 19.6585 35.5259C19.6585 35.2702 19.5912 35.059 19.4564 34.9034C19.3217 34.7477 19.1533 34.6143 18.9624 34.5254C18.7715 34.4365 18.4908 34.3364 18.1539 34.2253C17.7497 34.0919 17.4353 33.9696 17.1883 33.8585C16.9413 33.7473 16.7392 33.5694 16.5707 33.336C16.4023 33.1026 16.3125 32.8024 16.3125 32.4245C16.3125 32.1021 16.3911 31.8131 16.5483 31.5574C16.7055 31.3129 16.93 31.1128 17.2332 30.9794C17.5251 30.846 17.8845 30.7793 18.2775 30.7793C18.895 30.7793 19.4003 30.9238 19.7596 31.2239C20.1301 31.5241 20.3322 31.902 20.3996 32.3689H19.5238C19.4789 32.1243 19.3441 31.902 19.142 31.713C18.9287 31.5241 18.648 31.424 18.2887 31.424C17.963 31.424 17.6936 31.513 17.5027 31.6797C17.3006 31.8464 17.2108 32.091 17.2108 32.3911C17.2108 32.6357 17.2781 32.8358 17.4017 32.9803C17.5364 33.1359 17.6936 33.2471 17.8845 33.336C18.0753 33.4249 18.3448 33.5139 18.6704 33.625C19.0747 33.7584 19.4003 33.8807 19.6585 34.003C19.9056 34.1252 20.1189 34.3031 20.2873 34.5365C20.4557 34.77 20.5456 35.0923 20.5456 35.4925C20.5231 35.7815 20.4558 36.0594 20.3098 36.3151Z" fill="#3C2B4A"/>
<path d="M24.6883 30.8457V37.1152H23.8687V30.8457H24.6883Z" fill="#3C2B4A"/>
<path d="M32.9752 31.3237C33.4804 31.6906 33.8173 32.1797 33.9857 32.8022H33.1211C32.9752 32.4242 32.7169 32.113 32.3688 31.8907C32.0208 31.6572 31.6053 31.5461 31.1225 31.5461C30.6958 31.5461 30.3028 31.6461 29.9659 31.8462C29.6291 32.0463 29.3596 32.3242 29.1575 32.691C28.9666 33.0579 28.8656 33.4914 28.8656 33.9916C28.8656 34.5029 28.9666 34.9476 29.1575 35.3144C29.3484 35.6813 29.6291 35.9703 29.9772 36.1704C30.3253 36.3705 30.7295 36.4705 31.1899 36.4705C31.5829 36.4705 31.9309 36.3816 32.2565 36.2259C32.5822 36.0592 32.8404 35.8146 33.0537 35.5034C33.2671 35.1921 33.3794 34.8142 33.4243 34.3918H30.9316V33.7915H34.1092V34.5363C34.0531 35.0365 33.8959 35.4812 33.6376 35.8925C33.3794 36.3038 33.0313 36.615 32.5934 36.8484C32.1555 37.0819 31.6614 37.2042 31.1 37.2042C30.4937 37.2042 29.9547 37.0708 29.4831 36.804C29.0115 36.5372 28.6522 36.1592 28.394 35.6701C28.1357 35.1921 28.001 34.6363 28.001 34.0138C28.001 33.3913 28.1357 32.8355 28.394 32.3575C28.6522 31.8796 29.0228 31.4905 29.4831 31.2237C29.9435 30.9569 30.4824 30.8124 31.0888 30.8124C31.8523 30.7902 32.4699 30.968 32.9752 31.3237Z" fill="#3C2B4A"/>
<path d="M42.3955 37.1152H41.5759L38.286 32.1574V37.1152H37.4663V30.8457H38.286L41.5759 35.8035V30.8457H42.3955V37.1152Z" fill="#3C2B4A"/>
<path d="M54.2077 36.3151C54.0618 36.5708 53.8484 36.782 53.5565 36.9376C53.2645 37.0932 52.9053 37.1822 52.4674 37.1822C52.0519 37.1822 51.6701 37.1044 51.3445 36.9598C51.0189 36.8042 50.7606 36.6041 50.5585 36.3373C50.3676 36.0706 50.2554 35.7704 50.2217 35.4369H51.0975C51.1199 35.6148 51.1761 35.7927 51.2772 35.9594C51.3782 36.1261 51.5354 36.2706 51.7263 36.3818C51.9171 36.493 52.1529 36.5485 52.4336 36.5485C52.793 36.5485 53.0737 36.4596 53.2645 36.2595C53.4554 36.0594 53.5565 35.826 53.5565 35.5259C53.5565 35.2702 53.4891 35.059 53.3544 34.9034C53.2196 34.7477 53.0512 34.6143 52.8603 34.5254C52.6694 34.4365 52.3888 34.3364 52.0519 34.2253C51.6477 34.0919 51.3333 33.9696 51.0862 33.8585C50.8392 33.7473 50.6371 33.5694 50.4687 33.336C50.3003 33.1026 50.2104 32.8024 50.2104 32.4245C50.2104 32.1021 50.289 31.8131 50.4462 31.5574C50.6034 31.3129 50.828 31.1128 51.1312 30.9794C51.4231 30.846 51.7824 30.7793 52.1754 30.7793C52.793 30.7793 53.2983 30.9238 53.6576 31.2239C54.0281 31.5241 54.2302 31.902 54.2976 32.3689H53.4217C53.3768 32.1243 53.2421 31.902 53.04 31.713C52.8266 31.5241 52.546 31.424 52.1867 31.424C51.861 31.424 51.5915 31.513 51.4007 31.6797C51.1985 31.8464 51.1087 32.091 51.1087 32.3911C51.1087 32.6357 51.1761 32.8358 51.2996 32.9803C51.4343 33.1359 51.5915 33.2471 51.7824 33.336C51.9733 33.4249 52.2428 33.5139 52.5684 33.625C52.9726 33.7584 53.2982 33.8807 53.5565 34.003C53.8035 34.1252 54.0168 34.3031 54.1853 34.5365C54.3537 34.77 54.4435 35.0923 54.4435 35.4925C54.421 35.7815 54.3537 36.0594 54.2077 36.3151Z" fill="#3C2B4A"/>
<path d="M61.6521 30.8457V31.5016H59.8667V37.1152H59.0358V31.5016H57.2505V30.8457H61.6521Z" fill="#3C2B4A"/>
<path d="M65.4705 30.8457V34.6029C65.4705 35.2143 65.6052 35.6701 65.886 35.9702C66.1667 36.2592 66.5372 36.4149 67.0313 36.4149C67.5141 36.4149 67.8846 36.2704 68.1541 35.9702C68.4236 35.6701 68.5583 35.2254 68.5583 34.6141V30.8568H69.378V34.6141C69.378 35.47 69.1647 36.1147 68.738 36.5371C68.3113 36.9707 67.7386 37.1819 67.02 37.1819C66.3126 37.1819 65.74 36.9707 65.3134 36.5371C64.8867 36.1036 64.6733 35.47 64.6733 34.6141V30.8568H65.4705V30.8457Z" fill="#3C2B4A"/>
<path d="M77.832 35.6367C77.5738 36.1036 77.192 36.4704 76.698 36.7261C76.1927 36.9818 75.5976 37.1152 74.9015 37.1152H72.8916V30.8457H74.9015C75.5976 30.8457 76.2039 30.968 76.698 31.2237C77.192 31.4793 77.5738 31.835 77.832 32.313C78.0903 32.791 78.2138 33.3357 78.2138 33.9804C78.2138 34.6141 78.0903 35.1699 77.832 35.6367ZM76.7317 35.759C77.1696 35.3366 77.383 34.7475 77.383 33.9804C77.383 33.2134 77.1696 32.6243 76.7317 32.2019C76.2938 31.7795 75.665 31.5682 74.8341 31.5682H73.7V36.3926H74.8341C75.6538 36.3926 76.2938 36.1814 76.7317 35.759Z" fill="#3C2B4A"/>
<path d="M82.3909 30.8457V37.1152H81.5713V30.8457H82.3909Z" fill="#3C2B4A"/>
<path d="M90.4308 31.1789C90.9024 31.4568 91.2729 31.8347 91.5424 32.3238C91.8118 32.8129 91.9466 33.3687 91.9466 33.9801C91.9466 34.5915 91.8118 35.1473 91.5424 35.6364C91.2729 36.1255 90.9024 36.5035 90.4308 36.7814C89.9592 37.0593 89.4314 37.1927 88.8475 37.1927C88.2637 37.1927 87.7247 37.0593 87.2531 36.7814C86.7815 36.5035 86.3998 36.1255 86.1303 35.6364C85.8608 35.1473 85.7261 34.5915 85.7261 33.9801C85.7261 33.3687 85.8608 32.8129 86.1303 32.3238C86.3998 31.8347 86.7703 31.4568 87.2531 31.1789C87.7359 30.901 88.2637 30.7676 88.8475 30.7676C89.4314 30.7676 89.9592 30.901 90.4308 31.1789ZM87.6686 31.8236C87.3205 32.0237 87.051 32.3016 86.8602 32.6795C86.6693 33.0464 86.5682 33.4799 86.5682 33.9801C86.5682 34.4692 86.6693 34.9028 86.8602 35.2807C87.051 35.6587 87.3205 35.9366 87.6686 36.1366C88.0166 36.3367 88.3984 36.4368 88.8363 36.4368C89.263 36.4368 89.656 36.3367 90.0041 36.1366C90.3522 35.9366 90.6216 35.6475 90.8125 35.2807C91.0034 34.9139 91.1044 34.4803 91.1044 33.9912C91.1044 33.491 91.0034 33.0575 90.8125 32.6907C90.6216 32.3238 90.3522 32.0348 90.0041 31.8347C89.656 31.6346 89.2742 31.5346 88.8363 31.5346C88.4096 31.5235 88.0166 31.6235 87.6686 31.8236Z" fill="#3C2B4A"/>
</svg>

<svg width="92" height="38" fill="none" xmlns="http://www.w3.org/2000/svg"><path d="M.143 23.22V.477h13.53v22.732H.143v.011Zm11.89-5.291.349-2.512-1.258-.123-.381 1.934c-.786.39-1.752.578-2.908.578-1.572 0-2.819-.489-3.728-1.478-.921-.99-1.37-2.29-1.37-3.913 0-1.578.449-2.879 1.336-3.901.887-1.023 2.055-1.535 3.503-1.535.741 0 1.37.09 1.875.256.506.167.966.39 1.404.678l.37 1.912 1.28-.122-.37-2.512c-.539-.456-1.179-.823-1.92-1.112-.741-.278-1.662-.422-2.751-.422-1.291 0-2.403.31-3.335.945a6.473 6.473 0 0 0-2.178 2.5 7.498 7.498 0 0 0-.775 3.369c0 1.9.595 3.49 1.785 4.758 1.19 1.267 2.74 1.9 4.66 1.9 1.887 0 3.357-.4 4.413-1.2ZM18.266 23.22V.477h5.816v22.732h-5.816v.011Zm.618-4.29h4.592v-1.146h-1.583V5.09H18.86v1.145h1.606v11.55h-1.583v1.144ZM28.675 23.22V.477h10.218v22.732H28.675v.011Zm1.852-12.561-.325 2.067 1.179.145.348-1.545c.505-.245 1.078-.367 1.752-.367.808 0 1.358.2 1.639.6.28.4.415.923.415 1.568v.8a15.387 15.387 0 0 0-.786-.056c-.28-.01-.55-.022-.82-.022-1.01 0-1.976.178-2.874.534-.898.356-1.347 1.1-1.347 2.223 0 .956.303 1.612.92 1.968.618.366 1.224.544 1.82.544.73 0 1.358-.189 1.875-.567.516-.378.92-.8 1.212-1.29v.045c.023 1.212.573 1.812 1.65 1.812.416 0 .81-.1 1.18-.3l-.023-.923c-.18.078-.381.123-.606.123-.516 0-.775-.323-.775-.967v-4.258c0-2-1.078-3.001-3.233-3.001-.596 0-1.157.067-1.685.2a5.423 5.423 0 0 0-1.515.667Zm4.997 4.913c-.056.734-.36 1.323-.91 1.745-.55.434-1.133.645-1.762.645-.393 0-.775-.111-1.134-.322-.37-.211-.55-.612-.55-1.19 0-.7.28-1.145.82-1.356.55-.211 1.156-.311 1.84-.311.304 0 .596.011.876.044.281.023.562.045.809.056v.69h.011ZM43.496 23.22V.477h9.286v22.732h-9.286v.011Zm8.31-6.88c0-.712-.192-1.235-.574-1.58-.381-.344-.842-.577-1.403-.71a23.177 23.177 0 0 0-1.662-.334 4.963 4.963 0 0 1-1.403-.423c-.382-.189-.573-.522-.573-1 0-.456.18-.79.55-1.012.37-.222.831-.322 1.404-.322.662 0 1.28.145 1.852.445l.225 1.445 1.179-.145-.225-2.09c-.382-.233-.842-.422-1.392-.578a6.428 6.428 0 0 0-1.763-.244c-.83 0-1.594.2-2.302.589-.707.39-1.055 1.056-1.055 2.012 0 .7.19 1.212.572 1.534.382.334.854.556 1.427.69a32.72 32.72 0 0 0 1.695.344 4.595 4.595 0 0 1 1.415.444c.381.2.572.545.572 1.045 0 .512-.247.89-.74 1.134-.495.245-1.056.367-1.696.367a4.545 4.545 0 0 1-2.01-.445l.056-1.189-1.134-.122-.28 2.034c.392.256.909.467 1.538.634a7.362 7.362 0 0 0 1.897.255c1.09 0 1.999-.244 2.729-.744.73-.479 1.1-1.168 1.1-2.035ZM57.374 23.22V.477h9.286v22.732h-9.285v.011Zm8.31-6.88c0-.712-.191-1.235-.573-1.58-.382-.344-.842-.577-1.404-.71a23.188 23.188 0 0 0-1.662-.334 4.965 4.965 0 0 1-1.403-.423c-.382-.189-.573-.522-.573-1 0-.456.18-.79.55-1.012.371-.222.831-.322 1.404-.322.662 0 1.28.145 1.853.445l.224 1.445 1.18-.145-.225-2.09c-.382-.233-.842-.422-1.393-.578a6.428 6.428 0 0 0-1.762-.244c-.831 0-1.595.2-2.302.589-.708.39-1.056 1.056-1.056 2.012 0 .7.191 1.212.573 1.534.382.334.853.556 1.426.69.573.133 1.134.244 1.695.344a4.593 4.593 0 0 1 1.415.444c.382.2.573.545.573 1.045 0 .512-.247.89-.741 1.134-.494.245-1.056.367-1.696.367a4.545 4.545 0 0 1-2.01-.445l.056-1.189-1.133-.122-.281 2.034c.393.256.91.467 1.538.634a7.362 7.362 0 0 0 1.898.255c1.089 0 1.998-.244 2.728-.744.73-.479 1.1-1.168 1.1-2.035ZM71.252 23.22V.477h6.12v22.732h-6.12v.011Zm.899-4.29h4.592v-1.146H75.16V9.981h-3.043v1.145h1.628v6.658h-1.583v1.145h-.011Zm1.437-13.095v1.834h1.55V5.835h-1.55ZM81.964 23.22V.477h9.78v22.732h-9.78v.011Zm8.904-7.303-1.223-.267c-.27 1.512-1.09 2.268-2.437 2.268-.898 0-1.583-.3-2.055-.9-.471-.601-.707-1.446-.707-2.513 0-.967.213-1.79.629-2.479.415-.689 1.111-1.022 2.077-1.022.74 0 1.392.166 1.931.5l.348 1.511 1.18-.144-.349-2.157a4.213 4.213 0 0 0-1.448-.722 6.453 6.453 0 0 0-1.65-.2c-1.404 0-2.471.489-3.167 1.467-.708.978-1.056 2.09-1.056 3.324 0 1.434.37 2.557 1.123 3.346.741.8 1.74 1.2 2.987 1.2 1.246 0 2.167-.344 2.75-1.022.585-.69.944-1.412 1.067-2.19ZM5.993 35.637a2.67 2.67 0 0 1-1.134 1.09c-.505.255-1.1.388-1.796.388h-2.01v-6.27h2.01c.696 0 1.302.123 1.796.379.494.255.876.611 1.134 1.089.258.478.382 1.023.382 1.667 0 .634-.123 1.19-.382 1.657Zm-1.111.122c.438-.422.65-1.011.65-1.779 0-.767-.212-1.356-.65-1.778-.438-.422-1.067-.634-1.898-.634H1.85v4.825h1.134c.83 0 1.46-.212 1.898-.634ZM10.54 31.502v2.145h2.404v.623H10.54v2.19h2.672v.655H9.721v-6.27h3.492v.657h-2.672ZM20.31 36.315c-.146.256-.36.467-.651.623-.292.155-.652.244-1.09.244-.415 0-.797-.078-1.122-.222a2.075 2.075 0 0 1-.786-.623 1.837 1.837 0 0 1-.337-.9h.875c.023.178.08.356.18.522.101.167.258.312.45.423.19.111.426.166.707.166.359 0 .64-.088.83-.288.192-.2.293-.434.293-.734 0-.256-.068-.467-.203-.623a1.495 1.495 0 0 0-.494-.378 8.14 8.14 0 0 0-.808-.3 10.046 10.046 0 0 1-.966-.367 1.542 1.542 0 0 1-.617-.522c-.169-.233-.259-.534-.259-.911 0-.323.08-.612.236-.868.158-.244.382-.444.685-.578.292-.133.651-.2 1.044-.2.618 0 1.123.145 1.483.445.37.3.572.678.64 1.145h-.876a1.202 1.202 0 0 0-.382-.656c-.213-.189-.494-.289-.853-.289-.326 0-.595.089-.786.256-.202.166-.292.411-.292.711 0 .245.067.445.19.59.135.155.293.266.483.355.191.089.46.178.786.289.405.133.73.256.988.378.248.122.46.3.63.533.168.234.258.556.258.956-.023.29-.09.567-.236.823ZM24.688 30.846v6.27h-.82v-6.27h.82ZM32.975 31.324a2.61 2.61 0 0 1 1.01 1.478h-.864a1.873 1.873 0 0 0-.752-.911c-.348-.234-.764-.345-1.247-.345-.426 0-.82.1-1.156.3-.337.2-.606.478-.809.845-.19.367-.291.8-.291 1.3 0 .512.1.957.291 1.323.191.367.472.656.82.856.348.2.753.3 1.213.3.393 0 .74-.088 1.067-.244.325-.167.583-.411.797-.723.213-.31.325-.689.37-1.111h-2.492v-.6h3.177v.744c-.056.5-.213.945-.471 1.356a2.692 2.692 0 0 1-1.045.956 3.116 3.116 0 0 1-1.493.356c-.606 0-1.145-.133-1.617-.4a2.734 2.734 0 0 1-1.089-1.134c-.258-.478-.393-1.034-.393-1.656 0-.623.135-1.178.393-1.657a2.876 2.876 0 0 1 1.09-1.133c.46-.267.998-.412 1.605-.412.763-.022 1.38.156 1.886.512ZM42.395 37.115h-.82l-3.289-4.958v4.958h-.82v-6.27h.82l3.29 4.959v-4.958h.82v6.27ZM54.208 36.315c-.146.256-.36.467-.651.623-.293.155-.652.244-1.09.244-.415 0-.797-.078-1.123-.222a2.075 2.075 0 0 1-.785-.623 1.837 1.837 0 0 1-.337-.9h.875c.023.178.08.356.18.522.101.167.258.312.45.423.19.111.426.166.707.166.359 0 .64-.088.83-.288.191-.2.292-.434.292-.734 0-.256-.067-.467-.202-.623a1.497 1.497 0 0 0-.494-.378 8.137 8.137 0 0 0-.808-.3 10.06 10.06 0 0 1-.966-.367 1.54 1.54 0 0 1-.617-.522c-.169-.233-.259-.534-.259-.911 0-.323.079-.612.236-.868.157-.244.382-.444.685-.578.292-.133.651-.2 1.044-.2.618 0 1.123.145 1.483.445.37.3.572.678.64 1.145h-.876a1.201 1.201 0 0 0-.382-.656c-.213-.189-.494-.289-.853-.289-.326 0-.595.089-.786.256-.203.166-.292.411-.292.711 0 .245.067.445.19.59.135.155.293.266.483.355.191.089.46.178.786.289.405.133.73.256.989.378.246.122.46.3.628.533.169.234.258.556.258.956-.022.29-.09.567-.235.823ZM61.652 30.846v.656h-1.785v5.613h-.831v-5.613H57.25v-.656h4.401ZM65.47 30.846v3.757c0 .611.135 1.067.416 1.367.28.29.651.445 1.145.445.483 0 .854-.145 1.123-.445.27-.3.404-.745.404-1.356v-3.757h.82v3.757c0 .856-.213 1.5-.64 1.923-.427.434-1 .645-1.718.645-.707 0-1.28-.211-1.707-.645-.426-.433-.64-1.067-.64-1.923v-3.757h.797v-.011ZM77.832 35.637a2.67 2.67 0 0 1-1.134 1.09c-.505.255-1.1.388-1.796.388h-2.01v-6.27h2.01c.696 0 1.302.123 1.796.379.494.255.876.611 1.134 1.089.258.478.382 1.023.382 1.667 0 .634-.124 1.19-.382 1.657Zm-1.1.122c.438-.422.651-1.011.651-1.779 0-.767-.213-1.356-.651-1.778-.438-.422-1.067-.634-1.898-.634H73.7v4.825h1.134c.82 0 1.46-.212 1.898-.634ZM82.39 30.846v6.27h-.819v-6.27h.82ZM90.43 31.179a2.96 2.96 0 0 1 1.112 1.145c.27.489.405 1.045.405 1.656 0 .612-.135 1.167-.405 1.656-.27.49-.64.867-1.111 1.145-.472.278-1 .412-1.584.412a3.097 3.097 0 0 1-1.594-.412 2.989 2.989 0 0 1-1.123-1.145 3.384 3.384 0 0 1-.404-1.656c0-.611.135-1.167.404-1.656.27-.49.64-.867 1.123-1.145a3.125 3.125 0 0 1 1.594-.411c.584 0 1.112.133 1.584.41Zm-2.761.645c-.349.2-.618.478-.809.855-.19.367-.292.8-.292 1.301 0 .49.101.923.292 1.3.191.379.46.657.809.857.348.2.73.3 1.167.3.427 0 .82-.1 1.168-.3.348-.2.618-.49.808-.856.191-.367.292-.8.292-1.29 0-.5-.1-.934-.291-1.3a2.062 2.062 0 0 0-.809-.856c-.348-.2-.73-.3-1.168-.3a2.196 2.196 0 0 0-1.167.289Z" fill="#3C2B4A"/></svg>
